!!!SOCIAL_FUNCTION:	songs of the drum religion
!!!PDT:	1932
!!!OTL: No_90_Song_for_Men_Who_Prepare_Drum_(a).krn
!!!REG: Wisconsin
!!!LANG: Non-Tone
!!!LING_GROUP: Algonquin
**kern
*staff1
=1-
*clefF4
*k[]
*M3/4
12d\L
12d\
12d\J
8.d\L
16c\Jk
4c\
=2
12c\L
12c\
12c\J
8.c\L
16A\Jk
8A\
8r
=3
12d\L
12d\
12d\J
8.d\L
16c\Jk
4c\
=4
12c\L
12c\
12c\J
8.c\L
16A\Jk
8A\
8r
=5
=
12c\L
12c\
12c\J
8.c\L
16A\Jk
4A\
=6
12A\L
12G\
12G\J
8.G\L
16D\Jk
8D\
8r
=7
12A\L
12A\
12A\J
8.A\L
16E\Jk
4E\
=8
12E\L
12D\
12D\J
8.D/L
16C/Jk
4C/
=9
12C/L
12C/
12C/J
8.C/L
16AA/Jk
8AA/
8r
=10
12C/L
12C/
12C/J
8.D/L
16C/Jk
8C/
8r
=11
12C/L
12C/
12C/J
8.C/L
16AA/Jk
8AA/L
8AA/J
=12||
*M2/4
2AA/
=13
4r
8r
16r
16c\
==:|!
*-
